dist/img/pay-and-feed.svg

<svg width="2037" height="564" fill="none" xmlns="http://www.w3.org/2000/svg"><path d="M1891.56 272.512l98.77 44.167a39.999 39.999 0 0123.67 36.515V462.84c0 22.091-17.91 40-40 40h-181.6c-6.5 0-12.91 1.584-18.66 4.617l-98.48 51.926A40.02 40.02 0 011656.6 564h-294.96c-8.84 0-17.44-2.929-24.44-8.329l-57.68-44.502c-7-5.4-15.59-8.329-24.44-8.329h-215.03c-5.36 0-10.67 1.076-15.6 3.166l-127.124 53.828A40.005 40.005 0 01881.729 563H705.36a40 40 0 01-26.191-9.767l-46.895-40.626a39.996 39.996 0 00-26.191-9.767H237.527a40.003 40.003 0 01-23.801-7.852L77.905 394.432a40.003 40.003 0 00-23.801-7.852H40c-22.091 0-40-17.908-40-40V246.26c0-22.092 17.909-40 40-40h8.1a40.002 40.002 0 0031.209-14.98l113.682-141.8a39.999 39.999 0 0131.208-14.98H640.95c20.487 0 37.662 15.479 39.785 35.856l5.973 57.34c2.123 20.377 19.298 35.856 39.785 35.856h338.887c7.59 0 15.02-2.16 21.43-6.228l172.1-109.232a39.986 39.986 0 0121.43-6.229h477.4c16.19 0 30.79 9.769 36.97 24.74l76.21 184.653a39.963 39.963 0 0020.64 21.256z" fill="#2A8086"/><path d="M1914.84 240.027l98.64 44.591a39.998 39.998 0 0123.52 36.449V432.32c0 22.091-17.91 40-40 40h-181.05c-6.56 0-13.02 1.613-18.81 4.698l-98.13 52.284A40.002 40.002 0 011680.2 534h-294.13a40 40 0 01-24.59-8.453l-57.44-44.774a39.978 39.978 0 00-24.59-8.453h-214.38c-5.4 0-10.76 1.097-15.73 3.225l-126.721 54.221a39.998 39.998 0 01-15.736 3.225H731.107a40.001 40.001 0 01-26.348-9.903l-46.68-40.865a40 40 0 00-26.347-9.903H264.193a40.005 40.005 0 01-23.962-7.971l-135.41-101.305a40 40 0 00-23.962-7.972H67c-22.091 0-40-17.908-40-40V213.219c0-22.091 17.909-40 40-40h7.84a40 40 0 0031.337-15.139L219.582 15.14A40 40 0 01250.918 0h415.649c20.503 0 37.687 15.503 39.789 35.898l6.015 58.352c2.103 20.396 19.286 35.899 39.789 35.899h293.28c7.47 0 14.8-2.096 21.15-6.049l176.76-110.115a40.002 40.002 0 0121.15-6.05h516.67c16.24 0 30.86 9.819 37.02 24.848l76.11 185.948a39.976 39.976 0 0020.54 21.296z" fill="#2A808D" fill-opacity=".3"/><path d="M1837.72 232.471h-8.29l3.56 34.732.78 27.629h9.48l-3.95-27.629-1.58-34.732zm4.38 67.097h-6.66c-.47 0-.83.404-.79.87l3.47 33.863.76 26.861a.8.8 0 00.79.767h7.8c.48 0 .85-.426.78-.901l-3.82-26.727-1.54-33.98a.793.793 0 00-.79-.753zm16.13 23.681h-7.6c-.46 0-.83.399-.78.861l1.63 17.968v16.21c0 .469.41.835.88.785l8.09-.865a.794.794 0 00.7-.911l-2.5-15.426c-.01-.048-.01-.095-.01-.143l.38-17.673a.791.791 0 00-.79-.806zm-11 43.416h-6.66c-.47 0-.83.404-.79.87l3.46 33.797a.29.29 0 010 .131l-.73 11.33c-.03.455.33.84.79.84h7.67c.5 0 .87-.452.78-.939l-2.18-11.24c0-.037-.01-.076-.01-.114l-1.54-33.921a.793.793 0 00-.79-.754zm-22.38 14.515c4.6-2.739 11.18-11.915 11.66-18.858.03-.435-.32-.707-.68-.468-2.87 1.879-11.72 11.653-11.96 18.748-.01.53.53.849.98.578zm-3.06-26.214c1.69 4.898 8.23 5.71 12.78 5.51.29-.013.58-.199.56-.493-.11-2.313-7.67-5.511-12.63-5.907a.674.674 0 00-.71.89zm25.64-41.588c5.73-1.23 15.47-8.305 17.76-14.956.15-.412-.12-.782-.54-.673-3.52.908-15.98 7.932-17.99 14.809-.14.491.27.928.77.82zm79.06 21.159c-3.45 4.731-13.88 10.745-20.89 10.138-.43-.038-.66-.43-.39-.772 2.26-2.846 13.75-11.371 20.84-10.406.51.068.74.628.44 1.04zm9.97-82.392c-6.16 5.538-22.74 10.603-31.71 7.145-.4-.156-.54-.606-.21-.892 3.51-3.045 22.87-11.569 31.76-7.388.46.213.54.8.16 1.135zm-25.53-17.883c.4 6.479-4.2 18.83-10.46 22.815-.37.234-.8.069-.81-.366-.11-3.896 3.68-19.328 10.28-22.998.44-.243.95.05.99.549zm11.69 43.13c-2.96-6.248-12.72-15.071-19.38-15.117-.44-.003-.72.377-.52.765 1.84 3.611 12.64 15.809 19.38 15.305.47-.035.72-.526.52-.953zm-47.2-46.025l-8.27-.475 1.55 34.879-.79 27.628 9.45.544-2.35-27.81.41-34.766zm24.23-22.028l-8.18-1.339-2.11 34.85-3.68 27.393 9.34 1.531.57-27.903 4.06-34.532zm9.42 73.28l-10.69-1.996-2.88 34.82-4.91 27.207 12.21 2.282.84-27.968 5.43-34.345zm-33.12 15.986l-6.65-.382a.793.793 0 00-.84.823l1.52 34.006-.78 26.862c-.01.427.32.786.75.81l7.78.447c.48.028.87-.376.83-.854l-2.28-26.903.41-34.011a.79.79 0 00-.74-.798zm17.17-22.343l-6.57-1.076a.78.78 0 00-.91.731l-2.06 33.978-3.58 26.632c-.06.424.23.816.65.885l7.7 1.259c.47.078.9-.282.91-.763l.55-26.993 3.97-33.782a.789.789 0 00-.66-.871zm7.42 73.07l-9.07-1.695a.818.818 0 00-.96.73l-2.8 33.924-4.86 28.675c-.07.443.24.848.69.889l10.17.912a.81.81 0 00.88-.769l1.26-28.185 5.31-33.612a.766.766 0 00-.62-.869zm-23.31 16.555l-6.66-.383a.784.784 0 00-.83.822l1.13 26.331v.114l-1.89 18.495c-.04.435.28.823.71.866l10.11.99c.51.049.93-.385.86-.888l-2.61-20.052-.07-25.51a.798.798 0 00-.75-.785zm-21.88-89.793c-2.08 6.184 4.38 12.989 9.37 16.926.23.178.55.23.74.014 1.86-2.115-3.94-12.374-8.97-17.201a.687.687 0 00-1.14.261zm61.78 89.025c-5.98-.417-9.9-8.51-11.79-14.311-.09-.271-.03-.595.24-.685 2.45-.82 9.54 7.871 12.21 14.025.21.481-.13 1.008-.66.971zm-57.04-2.828h-7.6c-.46 0-.82.399-.78.861l1.63 17.967v31.241c0 .469.41.835.88.785l8.15-.871a.798.798 0 00.71-.852l-2.58-30.581.38-17.744a.791.791 0 00-.79-.806z" fill="#216E7A"/><circle cx="131.066" cy="234.214" r="65.066" fill="#216E7A"/><circle cx="131.066" cy="189.066" r="65.066" fill="#216E7A"/><rect x="120.474" y="235.974" width="15.132" height="118.026" rx="7.566" fill="#1D6874"/></svg>

<svg width="2037" height="564" viewBox="0 0 2037 564" fill="none" xmlns="http://www.w3.org/2000/svg">
<path d="M1891.56 272.512L1990.33 316.679C2004.73 323.118 2014 337.42 2014 353.194V462.84C2014 484.931 1996.09 502.84 1974 502.84H1792.4C1785.9 502.84 1779.49 504.424 1773.74 507.457L1675.26 559.383C1669.51 562.415 1663.1 564 1656.6 564H1361.64C1352.8 564 1344.2 561.071 1337.2 555.671L1279.52 511.169C1272.52 505.769 1263.93 502.84 1255.08 502.84H1040.05C1034.69 502.84 1029.38 503.916 1024.45 506.006L897.326 559.834C892.392 561.923 887.088 563 881.729 563H705.36C695.739 563 686.44 559.532 679.169 553.233L632.274 512.607C625.003 506.307 615.704 502.84 606.083 502.84H237.527C228.957 502.84 220.614 500.087 213.726 494.988L77.905 394.432C71.0172 389.333 62.6738 386.58 54.1039 386.58H40C17.9086 386.58 0 368.672 0 346.58V246.26C0 224.168 17.9086 206.26 40 206.26H48.1001C60.2369 206.26 71.7173 200.749 79.309 191.28L192.991 49.4798C200.582 40.0104 212.063 34.5 224.199 34.5H640.95C661.437 34.5 678.612 49.979 680.735 70.3557L686.708 127.696C688.831 148.073 706.006 163.552 726.493 163.552H1065.38C1072.97 163.552 1080.4 161.392 1086.81 157.324L1258.91 48.0917C1265.32 44.0235 1272.75 41.8633 1280.34 41.8633H1445.5H1757.74C1773.93 41.8633 1788.53 51.6315 1794.71 66.6039L1870.92 251.256C1874.82 260.723 1882.21 268.331 1891.56 272.512Z" fill="#2A8086"/>
<path d="M1914.84 240.027L2013.48 284.618C2027.8 291.092 2037 305.351 2037 321.067V432.32C2037 454.411 2019.09 472.32 1997 472.32H1815.95C1809.39 472.32 1802.93 473.933 1797.14 477.018L1699.01 529.302C1693.22 532.387 1686.76 534 1680.2 534H1386.07C1377.16 534 1368.51 531.025 1361.48 525.547L1304.04 480.773C1297.02 475.295 1288.36 472.32 1279.45 472.32H1065.07C1059.67 472.32 1054.31 473.417 1049.34 475.545L922.619 529.766C917.646 531.894 912.293 532.991 906.883 532.991H731.107C721.414 532.991 712.052 529.472 704.759 523.088L658.079 482.223C650.786 475.839 641.424 472.32 631.732 472.32H264.193C255.554 472.32 247.148 469.523 240.231 464.349L104.821 363.044C97.9039 357.869 89.4976 355.072 80.8591 355.072H67C44.9086 355.072 27 337.164 27 315.072V213.219C27 191.128 44.9086 173.219 67 173.219H74.8409C87.0492 173.219 98.5891 167.644 106.177 158.08L219.582 15.1391C227.17 5.5752 238.709 0 250.918 0H666.567C687.07 0 704.254 15.5031 706.356 35.8983L712.371 94.2504C714.474 114.646 731.657 130.149 752.16 130.149H1045.44C1052.91 130.149 1060.24 128.053 1066.59 124.1L1243.35 13.9846C1249.7 10.0313 1257.02 7.93576 1264.5 7.93576H1469.63H1781.17C1797.41 7.93576 1812.03 17.7539 1818.19 32.7829L1894.3 218.731C1898.17 228.194 1905.52 235.815 1914.84 240.027Z" fill="#2A808D" fill-opacity="0.3"/>
<path d="M1837.72 232.471H1829.43L1832.99 267.203L1833.77 294.832H1843.25L1839.3 267.203L1837.72 232.471Z" fill="#216E7A"/>
<path d="M1842.1 299.568H1835.44C1834.97 299.568 1834.61 299.972 1834.65 300.438L1838.12 334.301L1838.88 361.162C1838.9 361.589 1839.25 361.929 1839.67 361.929H1847.47C1847.95 361.929 1848.32 361.503 1848.25 361.028L1844.43 334.301L1842.89 300.321C1842.87 299.9 1842.52 299.568 1842.1 299.568Z" fill="#216E7A"/>
<path d="M1858.23 323.249L1850.63 323.249C1850.17 323.249 1849.8 323.648 1849.85 324.11L1851.48 342.078L1851.48 358.288C1851.48 358.757 1851.89 359.123 1852.36 359.073L1860.45 358.208C1860.9 358.16 1861.22 357.744 1861.15 357.297L1858.65 341.871C1858.64 341.823 1858.64 341.776 1858.64 341.728L1859.02 324.055C1859.03 323.613 1858.67 323.249 1858.23 323.249Z" fill="#216E7A"/>
<path d="M1847.23 366.665H1840.57C1840.1 366.665 1839.74 367.069 1839.78 367.535L1843.24 401.332C1843.25 401.376 1843.25 401.42 1843.24 401.463L1842.51 412.793C1842.48 413.248 1842.84 413.633 1843.3 413.633H1850.97C1851.47 413.633 1851.84 413.181 1851.75 412.694L1849.57 401.454C1849.57 401.417 1849.56 401.378 1849.56 401.34L1848.02 367.419C1848 366.997 1847.65 366.665 1847.23 366.665Z" fill="#216E7A"/>
<path d="M1824.85 381.18C1829.45 378.441 1836.03 369.265 1836.51 362.322C1836.54 361.887 1836.19 361.615 1835.83 361.854C1832.96 363.733 1824.11 373.507 1823.87 380.602C1823.86 381.132 1824.4 381.451 1824.85 381.18Z" fill="#216E7A"/>
<path d="M1821.79 354.966C1823.48 359.864 1830.02 360.676 1834.57 360.476C1834.86 360.463 1835.15 360.277 1835.13 359.983C1835.02 357.67 1827.46 354.472 1822.5 354.076C1822 354.036 1821.63 354.495 1821.79 354.966Z" fill="#216E7A"/>
<path d="M1847.43 313.378C1853.16 312.148 1862.9 305.073 1865.19 298.422C1865.34 298.01 1865.07 297.64 1864.65 297.749C1861.13 298.657 1848.67 305.681 1846.66 312.558C1846.52 313.049 1846.93 313.486 1847.43 313.378Z" fill="#216E7A"/>
<path d="M1926.49 334.537C1923.04 339.268 1912.61 345.282 1905.6 344.675C1905.17 344.637 1904.94 344.245 1905.21 343.903C1907.47 341.057 1918.96 332.532 1926.05 333.497C1926.56 333.565 1926.79 334.125 1926.49 334.537Z" fill="#216E7A"/>
<path d="M1936.46 252.145C1930.3 257.683 1913.72 262.748 1904.75 259.29C1904.35 259.134 1904.21 258.684 1904.54 258.398C1908.05 255.353 1927.41 246.829 1936.3 251.01C1936.76 251.223 1936.84 251.81 1936.46 252.145Z" fill="#216E7A"/>
<path d="M1910.93 234.262C1911.33 240.741 1906.73 253.092 1900.47 257.077C1900.1 257.311 1899.67 257.146 1899.66 256.711C1899.55 252.815 1903.34 237.383 1909.94 233.713C1910.38 233.47 1910.89 233.763 1910.93 234.262Z" fill="#216E7A"/>
<path d="M1922.62 277.392C1919.66 271.144 1909.9 262.321 1903.24 262.275C1902.8 262.272 1902.52 262.652 1902.72 263.04C1904.56 266.651 1915.36 278.849 1922.1 278.345C1922.57 278.31 1922.82 277.819 1922.62 277.392Z" fill="#216E7A"/>
<path d="M1875.42 231.367L1867.15 230.892L1868.7 265.771L1867.91 293.399L1877.36 293.943L1875.01 266.133L1875.42 231.367Z" fill="#216E7A"/>
<path d="M1899.65 209.339L1891.47 208L1889.36 242.85L1885.68 270.243L1895.02 271.774L1895.59 243.871L1899.65 209.339Z" fill="#216E7A"/>
<path d="M1909.07 282.619L1898.38 280.623L1895.5 315.443L1890.59 342.65L1902.8 344.932L1903.64 316.964L1909.07 282.619Z" fill="#216E7A"/>
<path d="M1875.95 298.605L1869.3 298.223C1868.83 298.196 1868.44 298.579 1868.46 299.046L1869.98 333.052L1869.2 359.914C1869.19 360.341 1869.52 360.7 1869.95 360.724L1877.73 361.171C1878.21 361.199 1878.6 360.795 1878.56 360.317L1876.28 333.414L1876.69 299.403C1876.69 298.981 1876.37 298.629 1875.95 298.605Z" fill="#216E7A"/>
<path d="M1893.12 276.262L1886.55 275.186C1886.09 275.11 1885.66 275.45 1885.64 275.917L1883.58 309.895L1880 336.527C1879.94 336.951 1880.23 337.343 1880.65 337.412L1888.35 338.671C1888.82 338.749 1889.25 338.389 1889.26 337.908L1889.81 310.915L1893.78 277.133C1893.83 276.714 1893.54 276.33 1893.12 276.262Z" fill="#216E7A"/>
<path d="M1900.54 349.332L1891.47 347.637C1891 347.549 1890.55 347.893 1890.51 348.367L1887.71 382.291L1882.85 410.966C1882.78 411.409 1883.09 411.814 1883.54 411.855L1893.71 412.767C1894.17 412.809 1894.57 412.454 1894.59 411.998L1895.85 383.813L1901.16 350.201C1901.22 349.79 1900.95 349.408 1900.54 349.332Z" fill="#216E7A"/>
<path d="M1877.23 365.887L1870.57 365.504C1870.1 365.477 1869.72 365.859 1869.74 366.326L1870.87 392.657C1870.87 392.695 1870.87 392.734 1870.87 392.771L1868.98 411.266C1868.94 411.701 1869.26 412.089 1869.69 412.132L1879.8 413.122C1880.31 413.171 1880.73 412.737 1880.66 412.234L1878.05 392.182L1877.98 366.672C1877.97 366.255 1877.65 365.91 1877.23 365.887Z" fill="#216E7A"/>
<path d="M1855.35 276.094C1853.27 282.278 1859.73 289.083 1864.72 293.02C1864.95 293.198 1865.27 293.25 1865.46 293.034C1867.32 290.919 1861.52 280.66 1856.49 275.833C1856.12 275.475 1855.52 275.604 1855.35 276.094Z" fill="#216E7A"/>
<path d="M1917.13 365.119C1911.15 364.702 1907.23 356.609 1905.34 350.808C1905.25 350.537 1905.31 350.213 1905.58 350.123C1908.03 349.303 1915.12 357.994 1917.79 364.148C1918 364.629 1917.66 365.156 1917.13 365.119Z" fill="#216E7A"/>
<path d="M1860.09 362.291L1852.49 362.291C1852.03 362.291 1851.67 362.69 1851.71 363.152L1853.34 381.119L1853.34 412.36C1853.34 412.829 1853.75 413.195 1854.22 413.145L1862.37 412.274C1862.8 412.228 1863.11 411.85 1863.08 411.422L1860.5 380.841L1860.88 363.097C1860.89 362.655 1860.53 362.291 1860.09 362.291Z" fill="#216E7A"/>
<circle cx="131.066" cy="234.214" r="65.0658" fill="#216E7A"/>
<circle cx="131.066" cy="189.066" r="65.0658" fill="#216E7A"/>
<rect x="120.474" y="235.974" width="15.1316" height="118.026" rx="7.56579" fill="#1D6874"/>
</svg>
